X:53228
F:http://www.vwml.org/record/HAM/5/32/28%%VWML:HAM-5-32-28-0
T:Bonny Lad, Highland Lad
S:Mrs Marina Russell, Upwey coll. HED Hammond
O:England
A:Dorset
N:Transcribed from HAM-02-238.gif
F:HAM-05-32-28.abc
Z:EFDSS;PJHeadford
M:C
L:1/8
Q:2/4=50
K:Eb
G/ G/|G> c c> d e2 G> =A|B2 G> =A B2 G G|\
G> c c> d e2f2|g2 d> e f> e Hc e/ f/|
g2e2 f f e2|c> c c> B G< G z2|\
G> =A B B =A2G2|G> c c> d e< c Hc||
W:Transcribed from HAM-02-238.gif Words below from HAM-01-690.gif - Hammond's field notes W:"do you wish to know her age, bonny lad!"
W:
W:Do you wish to know her age, bonny lad, Highland lad
W:Do you wish to know her age, my brave Highland laddy O!
W:She is twice 6, 7, twice 20 & 11
W:Isn't she a young thing lately from her Mammy O!
